ColourWaves.svg

<ns0:svg xmlns:ns0="http://www.w3.org/2000/svg" xmlns:ns1="http://sodipodi.sourceforge.net/DTD/sodipodi-0.dtd" xmlns:ns2="http://www.inkscape.org/namespaces/inkscape" ns1:docname="ColourWaves.svg" id="svg8" version="1.1" viewBox="0 0 1016 635.00001" height="2400" width="3840">
  <ns0:defs id="defs2" />
  <ns1:namedview ns2:window-maximized="1" ns2:window-y="27" ns2:window-x="1920" ns2:window-height="1016" ns2:window-width="1920" units="px" showgrid="false" ns2:document-rotation="0" ns2:current-layer="layer2" ns2:document-units="px" ns2:cy="1648.4427" ns2:cx="1577.732" ns2:zoom="0.11313709" ns2:pageshadow="2" ns2:pageopacity="0.0" borderopacity="1.0" bordercolor="#666666" pagecolor="#ffffff" id="base" showguides="false" ns2:pagecheckerboard="0" ns2:showpageshadow="2" ns2:deskcolor="#d1d1d1" />
  <ns0:g ns2:groupmode="layer" id="layer1" ns2:label="Background" style="display:inline">
    <ns0:g ns2:groupmode="layer" id="layer5" ns2:label="Colour" style="display:inline">
      <ns0:rect style="display:inline;opacity:1;fill:#494949;fill-opacity:1;stroke:none;stroke-width:2.56127;stroke-linecap:round;stroke-linejoin:round;stroke-miterlimit:4;stroke-dasharray:none;stroke-opacity:1;paint-order:markers fill stroke" id="rect957" width="1016" height="635" x="-3.5527137e-15" y="0" />
    </ns0:g>
    <ns0:g ns2:groupmode="layer" id="layer2" ns2:label="Waves" style="display:inline;opacity:1">
      <ns0:path style="opacity:0.1;fill:#ffffff;stroke:none;stroke-width:0;stroke-linecap:butt;stroke-linejoin:miter;stroke-miterlimit:4;stroke-dasharray:none;stroke-opacity:1" d="m 0,314.39243 c 18.599341,0 -11.065246,-87.76543 281.26877,-105.6247 C 409.13067,200.9564 456.14517,91.031975 650.99202,121.18849 779.45828,141.07126 1016,0 1016,0 H 0 Z" id="path3454" ns1:nodetypes="cssccc" />
      <ns0:path id="path5017" style="opacity:0.14;fill:#ffffff;stroke:none;stroke-width:0;stroke-linecap:butt;stroke-linejoin:miter;stroke-miterlimit:4;stroke-dasharray:none;stroke-opacity:1" d="M 222.91714 196.42109 C 113.99325 195.31298 5.3892639e-14 245.61085 0 245.61085 L 0 571.5 L 0 635 L 1016 635 L 1016 571.5 L 1016 456.36853 C 857.20812 456.36853 878.67635 380.64085 734.73139 380.64085 C 602.40405 380.64085 504.42599 386.0911 365.00821 246.67332 C 328.09926 209.76436 276.11253 196.96226 222.91714 196.42109 z " />
      <ns0:path style="opacity:0.2;fill:#ffffff;stroke:none;stroke-width:0;stroke-linecap:butt;stroke-linejoin:miter;stroke-miterlimit:4;stroke-dasharray:none;stroke-opacity:1" d="M 782.40029,389.61447 C 843.76737,283.32357 1016,245.61092 1016,245.61092 V 571.5 H 419.21154 C 506.95969,402.97697 716.64752,503.5016 782.40029,389.61447 Z" id="path5922" ns1:nodetypes="scccs" />
      <ns0:path id="path1743" style="opacity:1;fill:#b74de5;fill-opacity:1;stroke:none;stroke-width:0;stroke-linecap:butt;stroke-linejoin:miter;stroke-miterlimit:4;stroke-dasharray:none;stroke-opacity:1" d="m 186.71067,635 h 297.64072 c 1.50707,-28.13683 -47.84251,-28.43982 -92.48443,-54.21384 -42.36995,-24.4623 -49.25789,19.62128 -95.59202,7.20609 C 237.90345,572.35166 258.00645,627.85766 186.71067,635 Z" ns1:nodetypes="ccccc" />
      <ns0:path id="path6726" style="opacity:1;fill:#ff4613;fill-opacity:1;stroke:none;stroke-width:0;stroke-linecap:butt;stroke-linejoin:miter;stroke-miterlimit:4;stroke-dasharray:none;stroke-opacity:1" d="M 0,412.14746 V 571.5 635 l 288.94001,0 C 290.44708,606.86317 254.60955,606.02915 240.96359,571.5 209.67558,494.97691 161.65288,537.40986 112.12701,514.30505 75.681121,497.3023 93.689695,412.14746 0,412.14746 Z" ns1:nodetypes="cccccsc" />
      <ns0:path id="path804" style="opacity:1;fill:#6dff3a;fill-opacity:1;stroke:none;stroke-width:0;stroke-linecap:butt;stroke-linejoin:miter;stroke-miterlimit:4;stroke-dasharray:none;stroke-opacity:1" d="M 222.91714,196.42109 C 113.99325,195.31298 0,245.61085 0,245.61085 v 68.78133 c 18.599322,0 -11.065101,-87.76531 281.26862,-105.62456 5.61263,-0.34289 11.06154,-0.89277 16.38195,-1.60869 -23.58607,-7.33217 -49.01489,-10.4762 -74.73343,-10.73784 z" />
      <ns0:path id="path859" style="opacity:1;fill:#52ffe8;fill-opacity:1;stroke:none;stroke-width:0;stroke-linecap:butt;stroke-linejoin:miter;stroke-miterlimit:4;stroke-dasharray:none;stroke-opacity:1" d="m 785.43475,384.56206 c -1.03837,1.667 -2.05176,3.35037 -3.03444,5.0524 C 716.64768,503.50137 506.95961,402.9773 419.21162,571.5 403.07153,596.95928 364.21649,600.19009 364.21649,635 L 1016,635 V 571.5 456.36853 c -137.01264,0 -139.90354,-56.34107 -230.56525,-71.80647 z" ns1:nodetypes="cccccccc" />
      <ns0:path style="opacity:0.15;fill:#ffffff;stroke:none;stroke-width:0;stroke-linecap:butt;stroke-linejoin:miter;stroke-miterlimit:4;stroke-dasharray:none;stroke-opacity:1" d="m 751.59445,113.27603 c 24.46791,1.73982 174.53391,-20.733874 158.12328,43.92019 -16.83957,66.344 72.01218,146.16439 106.28227,146.16439 V 0 H 609.45039 c 38.16735,93.34833 115.98519,111.41597 142.14406,113.27603 z" id="path887" ns1:nodetypes="sscccs" />
      <ns0:path id="path985" style="opacity:1;fill:#ffff28;fill-opacity:1;stroke:none;stroke-width:0;stroke-linecap:butt;stroke-linejoin:miter;stroke-miterlimit:4;stroke-dasharray:none;stroke-opacity:1" d="M 609.45014,0 C 647.54659,93.174919 725.13849,111.34546 751.43993,113.26234 874.88166,84.117413 1016,0 1016,0 Z" />
      <ns0:path id="path990" style="opacity:1;fill:#ff0dc5;fill-opacity:1;stroke:none;stroke-width:0;stroke-linecap:butt;stroke-linejoin:miter;stroke-miterlimit:4;stroke-dasharray:none;stroke-opacity:1" d="m 1016,245.61085 c 0,0 -26.84959,5.90445 -63.08038,19.53938 22.5109,22.84542 48.04668,38.21058 63.08038,38.21058 z" />
      <ns0:path style="opacity:1;fill:#ff2222;fill-opacity:1;stroke:none;stroke-width:0;stroke-linecap:butt;stroke-linejoin:miter;stroke-miterlimit:4;stroke-dasharray:none;stroke-opacity:1" d="M 58.474427,26.509366 C 83.381963,29.44807 90.109338,21.703366 99.376224,0 H 0 v 36.915792 c 37.629612,0 40.04964,-12.580267 58.474427,-10.406426 z" id="path995" ns1:nodetypes="scccs" />
    </ns0:g>
  </ns0:g>
  <ns0:g ns2:groupmode="layer" id="layer4" ns2:label="Mask" style="display:none">
    <ns0:rect style="opacity:0.5;fill:#ff0000;fill-opacity:0.999974;stroke-width:3.36996;stroke-linejoin:round;paint-order:stroke markers fill" id="rect872" width="1016" height="63.5" x="2.8421709e-14" y="571.5" />
  </ns0:g>
</ns0:svg>

<ns0:svg xmlns:ns0="http://www.w3.org/2000/svg" xmlns:ns1="http://sodipodi.sourceforge.net/DTD/sodipodi-0.dtd" xmlns:ns2="http://www.inkscape.org/namespaces/inkscape" ns1:docname="ColourWaves.svg" id="svg8" version="1.1" viewBox="0 0 1016 571.50001" height="2160" width="3840">
  <ns0:defs id="defs2" />
  <ns1:namedview ns2:window-maximized="1" ns2:window-y="27" ns2:window-x="1920" ns2:window-height="1016" ns2:window-width="1920" units="px" showgrid="false" ns2:document-rotation="0" ns2:current-layer="layer5" ns2:document-units="px" ns2:cy="615.625" ns2:cx="2081.25" ns2:zoom="0.16" ns2:pageshadow="2" ns2:pageopacity="0.0" borderopacity="1.0" bordercolor="#666666" pagecolor="#ffffff" id="base" showguides="false" ns2:pagecheckerboard="0" ns2:showpageshadow="2" ns2:deskcolor="#d1d1d1" />
  <ns0:g ns2:groupmode="layer" id="layer1" ns2:label="Background" style="display:inline">
    <ns0:g ns2:groupmode="layer" id="layer5" ns2:label="Colour" style="display:inline">
      <ns0:rect style="display:inline;opacity:1;fill:#494949;fill-opacity:1;stroke:none;stroke-width:2.42983;stroke-linecap:round;stroke-linejoin:round;stroke-miterlimit:4;stroke-dasharray:none;stroke-opacity:1;paint-order:markers fill stroke" id="rect957" width="1016" height="571.5" x="-3.5527137e-15" y="0" />
    </ns0:g>
    <ns0:g ns2:groupmode="layer" id="layer2" ns2:label="Waves" style="display:inline;opacity:1">
      <ns0:path style="opacity:0.1;fill:#ffffff;stroke:none;stroke-width:0;stroke-linecap:butt;stroke-linejoin:miter;stroke-miterlimit:4;stroke-dasharray:none;stroke-opacity:1" d="m 0,314.39243 c 18.599341,0 -11.065246,-87.76543 281.26877,-105.6247 C 409.13067,200.9564 456.14517,91.031975 650.99202,121.18849 779.45828,141.07126 1016,0 1016,0 H 0 Z" id="path3454" ns1:nodetypes="cssccc" />
      <ns0:path style="opacity:0.14;fill:#ffffff;stroke:none;stroke-width:0;stroke-linecap:butt;stroke-linejoin:miter;stroke-miterlimit:4;stroke-dasharray:none;stroke-opacity:1" d="m 1016,456.36861 c -158.79205,0 -137.32366,-75.72776 -281.26877,-75.72776 -132.32747,0 -230.30533,5.45035 -369.72325,-133.96757 C 252.52343,134.18873 0,245.61092 0,245.61092 V 571.5 h 1016 z" id="path5017" ns1:nodetypes="csscccc" />
      <ns0:path style="opacity:0.2;fill:#ffffff;stroke:none;stroke-width:0;stroke-linecap:butt;stroke-linejoin:miter;stroke-miterlimit:4;stroke-dasharray:none;stroke-opacity:1" d="M 782.40029,389.61447 C 843.76737,283.32357 1016,245.61092 1016,245.61092 V 571.5 l -596.78846,0 C 506.95969,402.97697 716.64752,503.5016 782.40029,389.61447 Z" id="path5922" ns1:nodetypes="scccs" />
      <ns0:path style="opacity:1;fill:#ff4613;stroke:none;stroke-width:0;stroke-linecap:butt;stroke-linejoin:miter;stroke-miterlimit:4;stroke-dasharray:none;stroke-opacity:1;fill-opacity:1" d="M 112.12708,514.30527 C 75.681158,497.30251 93.689789,412.14768 0,412.14768 V 571.5 H 240.96354 C 209.6755,494.97683 161.653,537.41011 112.12708,514.30527 Z" id="path6726" ns1:nodetypes="scccs" />
      <ns0:path id="path804" style="opacity:1;fill:#6dff3a;stroke:none;stroke-width:0;stroke-linecap:butt;stroke-linejoin:miter;stroke-miterlimit:4;stroke-dasharray:none;stroke-opacity:1;fill-opacity:1" d="M 222.91714 196.42109 C 113.99325 195.31298 -5.3892639e-14 245.61085 0 245.61085 L 0 314.39218 C 18.599322 314.39218 -11.065101 226.62687 281.26862 208.76762 C 286.88125 208.42473 292.33016 207.87485 297.65057 207.15893 C 274.0645 199.82676 248.63568 196.68273 222.91714 196.42109 z " />
      <ns0:path id="path859" style="opacity:1;fill:#52ffe8;stroke:none;stroke-width:0;stroke-linecap:butt;stroke-linejoin:miter;stroke-miterlimit:4;stroke-dasharray:none;stroke-opacity:1;fill-opacity:1" d="M 785.43475 384.56206 C 784.39638 386.22906 783.38299 387.91242 782.40031 389.61446 C 716.64761 503.50148 506.95969 402.97714 419.21162 571.50001 L 1016 571.50001 L 1016 456.36853 C 878.98721 456.36853 876.09655 400.02748 785.43475 384.56206 z " />
      <ns0:path style="opacity:0.15;fill:#ffffff;stroke:none;stroke-width:0;stroke-linecap:butt;stroke-linejoin:miter;stroke-miterlimit:4;stroke-dasharray:none;stroke-opacity:1" d="m 751.59445,113.27603 c 24.46791,1.73982 174.53391,-20.733874 158.12328,43.92019 -16.83957,66.344 72.01218,146.16439 106.28227,146.16439 V 0 H 609.45039 c 38.16735,93.34833 115.98519,111.41597 142.14406,113.27603 z" id="path887" ns1:nodetypes="sscccs" />
      <ns0:path id="path985" style="opacity:1;fill:#ffff28;stroke:none;stroke-width:0;stroke-linecap:butt;stroke-linejoin:miter;stroke-miterlimit:4;stroke-dasharray:none;stroke-opacity:1;fill-opacity:1" d="M 609.45014 0 C 647.54659 93.174919 725.13849 111.34546 751.43993 113.26234 C 874.88166 84.117413 1016 1.9362183e-14 1016 0 L 609.45014 0 z " />
      <ns0:path id="path990" style="opacity:1;fill:#ff0dc5;stroke:none;stroke-width:0;stroke-linecap:butt;stroke-linejoin:miter;stroke-miterlimit:4;stroke-dasharray:none;stroke-opacity:1;fill-opacity:1" d="M 1016 245.61085 C 1016 245.61085 989.15041 251.5153 952.91962 265.15023 C 975.43052 287.99565 1000.9663 303.36081 1016 303.36081 L 1016 245.61085 z " />
      <ns0:path style="opacity:1;fill:#ff2222;fill-opacity:1;stroke:none;stroke-width:0;stroke-linecap:butt;stroke-linejoin:miter;stroke-miterlimit:4;stroke-dasharray:none;stroke-opacity:1" d="M 58.474427,26.509366 C 83.381963,29.44807 90.109338,21.703366 99.376224,0 H 0 v 36.915792 c 37.629612,0 40.04964,-12.580267 58.474427,-10.406426 z" id="path995" ns1:nodetypes="scccs" />
    </ns0:g>
  </ns0:g>
</ns0:svg>
